UI/Weather/SVG/flood_outline_24px.svg

<svg width="24" height="24" viewBox="0 0 24 24" fill="none" xmlns="http://www.w3.org/2000/svg">
<path d="M12 4.45002L14.55 7.14002L16 8.68002V10.92C14.6231 10.9216 13.2613 11.2076 12 11.76C10.7387 11.2076 9.37695 10.9216 8 10.92V8.68002L12 4.45002ZM12 2.00002C11.8684 1.99926 11.7379 2.02448 11.6161 2.07425C11.4943 2.12401 11.3834 2.19734 11.29 2.29002L4 10H6V13.18C7.00495 12.9159 8.05208 12.8524 9.08158 12.9931C10.1111 13.1338 11.1028 13.476 12 14C12.8972 13.476 13.8889 13.1338 14.9184 12.9931C15.9479 12.8524 16.9951 12.9159 18 13.18V10H20L18 7.88002V4.00002H16V5.77002L12.71 2.29002C12.6166 2.19734 12.5057 2.12401 12.3839 2.07425C12.2621 2.02448 12.1316 1.99926 12 2.00002ZM20 19.89C18.9 18.9061 17.4759 18.3622 16 18.3622C14.5241 18.3622 13.1 18.9061 12 19.89C10.9 18.9061 9.47586 18.3622 8 18.3622C6.52414 18.3622 5.10004 18.9061 4 19.89C3.42041 19.3625 2.7401 18.9577 2 18.7V20.89C2.26847 21.0506 2.51978 21.2382 2.75 21.45C3.0552 21.7812 3.47935 21.9777 3.92931 21.9965C4.37928 22.0152 4.8183 21.8546 5.15 21.55L5.25 21.45C5.99288 20.7467 6.977 20.3548 8 20.3548C9.023 20.3548 10.0071 20.7467 10.75 21.45C11.0552 21.7812 11.4793 21.9777 11.9293 21.9965C12.3793 22.0152 12.8183 21.8546 13.15 21.55L13.25 21.45C13.9929 20.7467 14.977 20.3548 16 20.3548C17.023 20.3548 18.0071 20.7467 18.75 21.45C19.0552 21.7812 19.4793 21.9777 19.9293 21.9965C20.3793 22.0152 20.8183 21.8546 21.15 21.55C21.1858 21.5192 21.2192 21.4858 21.25 21.45C21.4802 21.2382 21.7315 21.0506 22 20.89V18.7C21.2599 18.9577 20.5796 19.3625 20 19.89ZM20 15.89C18.9 14.9061 17.4759 14.3622 16 14.3622C14.5241 14.3622 13.1 14.9061 12 15.89C10.9 14.9061 9.47586 14.3622 8 14.3622C6.52414 14.3622 5.10004 14.9061 4 15.89C3.42041 15.3625 2.7401 14.9577 2 14.7V16.89C2.26847 17.0506 2.51978 17.2382 2.75 17.45C3.0552 17.7812 3.47935 17.9777 3.92931 17.9965C4.37928 18.0152 4.8183 17.8546 5.15 17.55L5.25 17.45C5.99288 16.7467 6.977 16.3548 8 16.3548C9.023 16.3548 10.0071 16.7467 10.75 17.45C11.0552 17.7812 11.4793 17.9777 11.9293 17.9965C12.3793 18.0152 12.8183 17.8546 13.15 17.55L13.25 17.45C13.9929 16.7467 14.977 16.3548 16 16.3548C17.023 16.3548 18.0071 16.7467 18.75 17.45C19.0552 17.7812 19.4793 17.9777 19.9293 17.9965C20.3793 18.0152 20.8183 17.8546 21.15 17.55C21.1858 17.5192 21.2192 17.4858 21.25 17.45C21.4802 17.2382 21.7315 17.0506 22 16.89V14.7C21.2599 14.9577 20.5796 15.3625 20 15.89Z" fill="#0F1621"/>
</svg>

<svg xmlns="http://www.w3.org/2000/svg" width="24" height="24" viewBox="0 0 24 24"><rect width="24" height="24" style="fill:none"/><path d="M12,4.45l2.55,2.69L16,8.68v2.24a10,10,0,0,0-4,.84,10,10,0,0,0-4-.84V8.68l4-4.23M12,2a1,1,0,0,0-.71.29L4,10H6v3.18A7.91,7.91,0,0,1,12,14a7.91,7.91,0,0,1,6-.82V10h2L18,7.88V4H16V5.77L12.71,2.29A1,1,0,0,0,12,2Zm8,17.89a6,6,0,0,0-8,0,6,6,0,0,0-8,0A5.81,5.81,0,0,0,2,18.7v2.19a4.58,4.58,0,0,1,.75.56,1.7,1.7,0,0,0,2.4.1l.1-.1a4,4,0,0,1,5.5,0,1.7,1.7,0,0,0,2.4.1l.1-.1a4,4,0,0,1,5.5,0,1.7,1.7,0,0,0,2.4.1.94.94,0,0,0,.1-.1,4.58,4.58,0,0,1,.75-.56V18.7A5.81,5.81,0,0,0,20,19.89Zm0-4a6,6,0,0,0-8,0,6,6,0,0,0-8,0A5.81,5.81,0,0,0,2,14.7v2.19a4.58,4.58,0,0,1,.75.56,1.7,1.7,0,0,0,2.4.1l.1-.1a4,4,0,0,1,5.5,0,1.7,1.7,0,0,0,2.4.1l.1-.1a4,4,0,0,1,5.5,0,1.7,1.7,0,0,0,2.4.1.94.94,0,0,0,.1-.1,4.58,4.58,0,0,1,.75-.56V14.7A5.81,5.81,0,0,0,20,15.89Z"/></svg>
